X: 1
T: The Drunken Sailor
R: polka
M: 2/4
L: 1/8
K: Gmaj
|: G2 BG| dG BG | AA AA | FA FD | G2 BG| dG BG | AA FA | G4 :|
|: Bd dB | ce eG | Bd dG | cA AG | Bd dG | ce e2 | d2 ef | g4 :|
|: g3 f | e3 d | dB BG | AG G2 | Bd dG | ce e2 | d2 ef | g4 :|


Tune 6348	Setting 18102

